src/shared/assets/icons/ic-cancel.svg

<svg width="28" height="28" viewBox="0 0 28 28" fill="none" xmlns="http://www.w3.org/2000/svg">
<g clip-path="url(#clip0_71_51139)">
<path d="M13.9997 2.33398C7.54801 2.33398 2.33301 7.54898 2.33301 14.0007C2.33301 20.4523 7.54801 25.6673 13.9997 25.6673C20.4513 25.6673 25.6663 20.4523 25.6663 14.0007C25.6663 7.54898 20.4513 2.33398 13.9997 2.33398ZM19.1259 17.4819C19.5164 17.8724 19.5164 18.5056 19.1259 18.8961L18.8951 19.1269C18.5046 19.5174 17.8714 19.5174 17.4809 19.1269L13.9997 15.6457L10.5184 19.1269C10.1279 19.5174 9.49476 19.5174 9.10423 19.1269L8.89385 18.9165C8.49545 18.5181 8.50467 17.8694 8.91424 17.4825L12.5999 14.0007L8.91424 10.5188C8.50467 10.1319 8.49545 9.48321 8.89385 9.08481L9.10423 8.87443C9.49476 8.4839 10.1279 8.4839 10.5184 8.87443L13.9997 12.3557L17.4809 8.87442C17.8714 8.4839 18.5046 8.4839 18.8951 8.87442L19.1259 9.10521C19.5164 9.49574 19.5164 10.1289 19.1259 10.5194L15.6447 14.0007L19.1259 17.4819Z" fill="#D30000"/>
</g>
<defs>
<clipPath id="clip0_71_51139">
<rect width="28" height="28" rx="4" fill="white"/>
</clipPath>
</defs>
</svg>

<svg xmlns="http://www.w3.org/2000/svg" fill="none" viewBox="0 0 28 28"><g clip-path="url(#a)"><path fill="#d30000" d="M14 2.334A11.656 11.656 0 0 0 2.333 14.001 11.656 11.656 0 0 0 14 25.667a11.656 11.656 0 0 0 11.666-11.666A11.656 11.656 0 0 0 14 2.334m5.126 15.148a1 1 0 0 1 0 1.414l-.23.23a1 1 0 0 1-1.415 0L14 15.647l-3.482 3.48a1 1 0 0 1-1.414 0l-.21-.21a1 1 0 0 1 .02-1.433L12.6 14l-3.686-3.482a1 1 0 0 1-.02-1.434l.21-.21a1 1 0 0 1 1.414 0L14 12.354l3.48-3.48a1 1 0 0 1 1.415 0l.23.23a1 1 0 0 1 0 1.414L15.645 14z"/></g><defs><clipPath id="a"><rect width="28" height="28" fill="#fff" rx="4"/></clipPath></defs></svg>
